X:7901
T:Montanyes del canigo
C:anon.
O:Spain
A:Catalu\~na
Z:Transcribed by Frank Nordberg - http://www.musicaviva.com
F:http://abc.musicaviva.com/tunes/spain/montanyes-del-canigo.abc
M:3/4
L:1/8
K:F
"^Slow"FG|A3A BG|F4A>B|c3d ef|
e>dc2ed|B3c dc|A4c>A|G3A BB|
A>GF2cA|G3A BB|A>GF4-|F4|]
W:
W:
W:  From Musica Viva - http://www.musicaviva.com
W:  the Internet center for free sheet music downloads.
